static/img/in-field/dropdown-default.svg

<svg width="177" height="57" viewBox="0 0 177 57" fill="none" xmlns="http://www.w3.org/2000/svg">
<rect x="0.5" y="0.5" width="176" height="56" fill="#fff"/>
<path d="M19.1484 37.5V21.7949H20.9746V35.8672H27.9463V37.5H19.1484ZM32.4072 25.7266V37.5H30.624V25.7266H32.4072ZM31.5371 21.3223C31.8307 21.3223 32.0814 21.4189 32.2891 21.6123C32.5039 21.7985 32.6113 22.0921 32.6113 22.4932C32.6113 22.887 32.5039 23.1807 32.2891 23.374C32.0814 23.5674 31.8307 23.6641 31.5371 23.6641C31.2292 23.6641 30.9714 23.5674 30.7637 23.374C30.5632 23.1807 30.4629 22.887 30.4629 22.4932C30.4629 22.0921 30.5632 21.7985 30.7637 21.6123C30.9714 21.4189 31.2292 21.3223 31.5371 21.3223ZM44.0547 34.2773C44.0547 35.0293 43.8649 35.6631 43.4854 36.1787C43.113 36.6872 42.5758 37.0703 41.874 37.3281C41.1794 37.5859 40.3486 37.7148 39.3818 37.7148C38.5583 37.7148 37.8457 37.6504 37.2441 37.5215C36.6426 37.3926 36.1162 37.21 35.665 36.9736V35.3301C36.1449 35.5664 36.7178 35.7812 37.3838 35.9746C38.0498 36.168 38.7301 36.2646 39.4248 36.2646C40.4417 36.2646 41.1794 36.0999 41.6377 35.7705C42.096 35.4411 42.3252 34.9935 42.3252 34.4277C42.3252 34.1055 42.2321 33.8226 42.0459 33.5791C41.8669 33.3285 41.5625 33.0885 41.1328 32.8594C40.7031 32.623 40.1087 32.3652 39.3496 32.0859C38.5977 31.7995 37.946 31.5166 37.3945 31.2373C36.8503 30.9508 36.4277 30.6035 36.127 30.1953C35.8333 29.7871 35.6865 29.2572 35.6865 28.6055C35.6865 27.61 36.0876 26.8473 36.8896 26.3174C37.6989 25.7803 38.7588 25.5117 40.0693 25.5117C40.7783 25.5117 41.4408 25.5833 42.0566 25.7266C42.6797 25.8626 43.2598 26.0488 43.7969 26.2852L43.1953 27.7139C42.7083 27.5062 42.1891 27.3307 41.6377 27.1875C41.0863 27.0443 40.5241 26.9727 39.9512 26.9727C39.1276 26.9727 38.4938 27.1087 38.0498 27.3809C37.613 27.653 37.3945 28.0254 37.3945 28.498C37.3945 28.8633 37.4948 29.1641 37.6953 29.4004C37.903 29.6367 38.2324 29.8587 38.6836 30.0664C39.1348 30.2741 39.7292 30.5176 40.4668 30.7969C41.2044 31.069 41.8418 31.3519 42.3789 31.6455C42.916 31.932 43.3278 32.2829 43.6143 32.6982C43.9079 33.1064 44.0547 33.6328 44.0547 34.2773ZM50.9756 36.2539C51.2692 36.2539 51.57 36.2288 51.8779 36.1787C52.1859 36.1286 52.4365 36.0677 52.6299 35.9961V37.3818C52.4222 37.4749 52.1322 37.5537 51.7598 37.6182C51.3945 37.6826 51.0365 37.7148 50.6855 37.7148C50.0625 37.7148 49.4967 37.6074 48.9883 37.3926C48.4798 37.1706 48.0716 36.7982 47.7637 36.2754C47.4629 35.7526 47.3125 35.0293 47.3125 34.1055V27.123H45.6367V26.2529L47.3232 25.5547L48.0322 22.998H49.1064V25.7266H52.5547V27.123H49.1064V34.0518C49.1064 34.7894 49.2747 35.3408 49.6113 35.7061C49.9551 36.0713 50.4098 36.2539 50.9756 36.2539ZM72.4658 21.7949L66.8262 37.5H64.9893L59.3496 21.7949H61.2617L64.9355 32.1396C65.0859 32.555 65.2184 32.9525 65.333 33.332C65.4548 33.7116 65.5622 34.0768 65.6553 34.4277C65.7484 34.7786 65.8307 35.1188 65.9023 35.4482C65.974 35.1188 66.0563 34.7786 66.1494 34.4277C66.2425 34.0697 66.3499 33.7008 66.4717 33.3213C66.5934 32.9346 66.7295 32.5299 66.8799 32.1074L70.5322 21.7949H72.4658ZM79.0107 25.5332C80.4144 25.5332 81.4564 25.8483 82.1367 26.4785C82.8171 27.1087 83.1572 28.1149 83.1572 29.4971V37.5H81.8574L81.5137 35.7598H81.4277C81.0983 36.1895 80.7546 36.5511 80.3965 36.8447C80.0384 37.1312 79.623 37.3496 79.1504 37.5C78.6849 37.6432 78.112 37.7148 77.4316 37.7148C76.7155 37.7148 76.0781 37.5895 75.5195 37.3389C74.9681 37.0882 74.5312 36.7087 74.209 36.2002C73.8939 35.6917 73.7363 35.0472 73.7363 34.2666C73.7363 33.0921 74.2018 32.1898 75.1328 31.5596C76.0638 30.9294 77.4818 30.5856 79.3867 30.5283L81.417 30.4424V29.7227C81.417 28.7057 81.1986 27.9932 80.7617 27.585C80.3249 27.1768 79.709 26.9727 78.9141 26.9727C78.2982 26.9727 77.7109 27.0622 77.1523 27.2412C76.5938 27.4202 76.0638 27.6315 75.5625 27.875L75.0146 26.5215C75.5446 26.2493 76.1533 26.0166 76.8408 25.8232C77.5283 25.6299 78.2516 25.5332 79.0107 25.5332ZM81.3955 31.6992L79.6016 31.7744C78.1335 31.8317 77.0986 32.0716 76.4971 32.4941C75.8955 32.9167 75.5947 33.5146 75.5947 34.2881C75.5947 34.9613 75.7988 35.459 76.207 35.7812C76.6152 36.1035 77.1559 36.2646 77.8291 36.2646C78.8747 36.2646 79.7305 35.9746 80.3965 35.3945C81.0625 34.8145 81.3955 33.9443 81.3955 32.7842V31.6992ZM88.875 37.5H87.0811V20.7852H88.875V37.5ZM102.617 25.7266V37.5H101.156L100.898 35.8457H100.802C100.558 36.2539 100.243 36.5977 99.8564 36.877C99.4697 37.1562 99.0329 37.3639 98.5459 37.5C98.0661 37.6432 97.554 37.7148 97.0098 37.7148C96.0788 37.7148 95.2982 37.5645 94.668 37.2637C94.0378 36.9629 93.5615 36.4974 93.2393 35.8672C92.9242 35.237 92.7666 34.4277 92.7666 33.4395V25.7266H94.5713V33.3105C94.5713 34.2917 94.7933 35.0257 95.2373 35.5127C95.6813 35.9925 96.3581 36.2324 97.2676 36.2324C98.1413 36.2324 98.8359 36.0677 99.3516 35.7383C99.8743 35.4089 100.25 34.9255 100.479 34.2881C100.709 33.6436 100.823 32.8558 100.823 31.9248V25.7266H102.617ZM111.171 25.5117C112.174 25.5117 113.033 25.7337 113.749 26.1777C114.465 26.6217 115.013 27.2448 115.393 28.0469C115.772 28.8418 115.962 29.7728 115.962 30.8398V31.9463H107.83C107.852 33.3285 108.195 34.3812 108.861 35.1045C109.527 35.8278 110.465 36.1895 111.676 36.1895C112.421 36.1895 113.079 36.1214 113.652 35.9854C114.225 35.8493 114.82 35.6488 115.436 35.3838V36.9521C114.841 37.2171 114.25 37.4105 113.663 37.5322C113.083 37.654 112.396 37.7148 111.601 37.7148C110.469 37.7148 109.481 37.4857 108.636 37.0273C107.798 36.5618 107.146 35.8815 106.681 34.9863C106.215 34.0911 105.982 32.9954 105.982 31.6992C105.982 30.4316 106.194 29.3359 106.616 28.4121C107.046 27.4811 107.647 26.765 108.421 26.2637C109.201 25.7624 110.118 25.5117 111.171 25.5117ZM111.149 26.9727C110.197 26.9727 109.438 27.2842 108.872 27.9072C108.306 28.5303 107.97 29.4004 107.862 30.5176H114.093C114.086 29.8158 113.975 29.1999 113.76 28.6699C113.552 28.1328 113.233 27.7174 112.804 27.4238C112.374 27.123 111.823 26.9727 111.149 26.9727Z" fill="#353A40"/>
<rect x="0.5" y="0.5" width="176" height="56" stroke="#CBCDD6"/>
</svg>

<svg width="177" height="57" fill="none" xmlns="http://www.w3.org/2000/svg"><path fill="#fff" d="M.5.5h176v56H.5z"/><path d="M19.148 37.5V21.795h1.827v14.072h6.971V37.5h-8.798zm13.26-11.773V37.5h-1.784V25.727h1.783zm-.87-4.405c.293 0 .543.097.751.29.215.187.322.48.322.881 0 .394-.107.688-.322.881-.208.193-.458.29-.752.29-.308 0-.566-.097-.773-.29-.2-.193-.301-.487-.301-.88 0-.402.1-.695.3-.882.208-.193.466-.29.774-.29zm12.517 12.955c0 .752-.19 1.386-.57 1.902-.372.508-.91.891-1.611 1.15-.695.257-1.525.386-2.492.386-.824 0-1.536-.065-2.138-.194a6.188 6.188 0 01-1.579-.547V35.33c.48.236 1.053.451 1.719.645.666.193 1.346.29 2.04.29 1.018 0 1.755-.165 2.214-.495.458-.329.687-.777.687-1.342 0-.322-.093-.605-.28-.849-.178-.25-.483-.49-.912-.72-.43-.236-1.024-.494-1.783-.773a20.588 20.588 0 01-1.956-.849c-.544-.286-.966-.633-1.267-1.042-.294-.408-.44-.938-.44-1.59 0-.995.4-1.758 1.203-2.288.809-.537 1.869-.805 3.18-.805.708 0 1.37.071 1.987.215a9.155 9.155 0 011.74.558l-.602 1.429a11.037 11.037 0 00-1.557-.526 6.682 6.682 0 00-1.687-.215c-.823 0-1.457.136-1.901.408-.437.272-.655.644-.655 1.117 0 .365.1.666.3.902.208.237.537.459.989.666.45.208 1.045.452 1.783.73.737.273 1.375.556 1.912.85.537.286.949.637 1.235 1.052.294.408.44.935.44 1.58zm6.92 1.977c.294 0 .595-.025.903-.075a4.13 4.13 0 00.752-.183v1.386c-.208.093-.498.172-.87.236a6.18 6.18 0 01-1.075.097 4.32 4.32 0 01-1.697-.322c-.508-.222-.916-.595-1.224-1.118-.301-.522-.452-1.246-.452-2.17v-6.982h-1.675v-.87l1.686-.698.71-2.557h1.073v2.729h3.449v1.396h-3.449v6.929c0 .737.169 1.289.505 1.654.344.365.799.548 1.365.548zm21.49-14.46L66.827 37.5H64.99l-5.64-15.705h1.913l3.674 10.345c.15.415.282.813.397 1.192a22.365 22.365 0 01.57 2.116 23.344 23.344 0 01.569-2.127 34.6 34.6 0 01.408-1.214l3.652-10.312h1.934zm6.546 3.74c1.403 0 2.445.314 3.126.945.68.63 1.02 1.636 1.02 3.018V37.5h-1.3l-.343-1.74h-.086a6.53 6.53 0 01-1.031 1.085 3.834 3.834 0 01-1.247.655c-.465.143-1.038.215-1.718.215-.716 0-1.354-.126-1.913-.376a2.977 2.977 0 01-1.31-1.139c-.315-.508-.473-1.153-.473-1.933 0-1.175.466-2.077 1.397-2.707.93-.63 2.349-.974 4.254-1.032l2.03-.086v-.72c0-1.016-.218-1.729-.655-2.137-.437-.408-1.053-.612-1.848-.612-.616 0-1.203.09-1.762.268-.558.18-1.088.39-1.59.634l-.547-1.354a9.817 9.817 0 011.826-.698 7.98 7.98 0 012.17-.29zm2.385 6.165l-1.794.075c-1.469.058-2.503.298-3.105.72-.602.423-.902 1.02-.902 1.794 0 .673.204 1.171.612 1.493.408.322.949.484 1.622.484 1.046 0 1.902-.29 2.568-.87.665-.58.998-1.45.998-2.61v-1.086zm7.479 5.801h-1.794V20.785h1.794V37.5zm13.742-11.773V37.5h-1.461l-.258-1.654h-.096a3.431 3.431 0 01-.946 1.031c-.386.28-.823.487-1.31.623-.48.143-.992.215-1.536.215-.931 0-1.712-.15-2.342-.451a3.035 3.035 0 01-1.429-1.397c-.315-.63-.472-1.44-.472-2.427v-7.713h1.804v7.583c0 .982.222 1.716.666 2.203.444.48 1.121.72 2.03.72.874 0 1.569-.165 2.085-.495.522-.33.898-.813 1.127-1.45.23-.644.344-1.432.344-2.363v-6.198h1.794zm8.554-.215c1.003 0 1.862.222 2.578.666.716.444 1.264 1.067 1.644 1.869.379.795.569 1.726.569 2.793v1.106h-8.132c.022 1.382.365 2.435 1.031 3.159.666.723 1.604 1.085 2.815 1.085.745 0 1.403-.069 1.976-.205a10.908 10.908 0 001.784-.601v1.568a8.697 8.697 0 01-1.773.58c-.58.122-1.267.183-2.062.183-1.132 0-2.12-.23-2.965-.688-.838-.465-1.49-1.145-1.955-2.04-.466-.896-.699-1.992-.699-3.288 0-1.267.212-2.363.634-3.287.43-.93 1.031-1.647 1.805-2.148.78-.502 1.697-.752 2.75-.752zm-.022 1.46c-.952 0-1.711.312-2.277.935-.566.623-.902 1.493-1.01 2.61h6.231c-.007-.701-.118-1.317-.333-1.847-.208-.537-.527-.953-.956-1.246-.43-.301-.981-.451-1.655-.451z" fill="#353A40"/><path stroke="#CBCDD6" d="M.5.5h176v56H.5z"/></svg>
